X: 13
T:Les anguilles [ok]
R:
S:
N:
A:Champagne
G:
O:France
Z:<anamnese@laposte.net>
M:2/4
L:1/8
Q:1/4=135
K:D
d/d/d/d/ dd/d/ | ee A>A |: dd d>A | f2d2 | d/c/d/e/ f/e/d/c/ | e/d/c/A/ A>A :||: f2e2 | ff d2 |
fe de | f2d2 | f2 ee | ff d2 | ff fd | fe f2 | d2 f2 | f2 d2 :|
 "fin" d/2d/2d/2d/2 d d/d/ | ee A>A :| d2 f2 | f2 d2 ||
